icons/media/repeat-24.svg

<svg width="24" height="24" viewBox="0 0 24 24" fill="none" xmlns="http://www.w3.org/2000/svg">
<path d="M16.9435 2.1452C16.7156 1.97806 16.4131 1.95324 16.161 2.081C15.9089 2.20875 15.75 2.46738 15.75 2.75V4.75L7.51789 4.75C6.70505 4.75 6.04944 4.74999 5.51853 4.79337C4.97189 4.83803 4.49175 4.93239 4.04753 5.15873C3.34192 5.51825 2.76825 6.09193 2.40872 6.79754C1.99885 7.60196 1.99922 8.37524 1.99994 9.85695L2 11.25C2 11.6642 2.33578 12 2.75 12C3.16421 12 3.5 11.6642 3.5 11.25V10.05C3.5 8.2987 3.51858 7.92335 3.74523 7.47852C3.96095 7.05516 4.30515 6.71095 4.72852 6.49524C4.92604 6.3946 5.1868 6.32547 5.64068 6.28839C6.10331 6.25059 6.69754 6.25 7.55 6.25H15.75V8.25C15.75 8.53263 15.9089 8.79126 16.161 8.91901C16.4131 9.04676 16.7156 9.02194 16.9435 8.85481L20.6935 6.10481C20.8862 5.96353 21 5.73891 21 5.5C21 5.2611 20.8862 5.03648 20.6935 4.8952L16.9435 2.1452Z" fill="black"/>
<path d="M22 12.75C22 12.3358 21.6642 12 21.25 12C20.8358 12 20.5 12.3358 20.5 12.75V13.95C20.5 15.7013 20.4814 16.0767 20.2548 16.5215C20.039 16.9448 19.6948 17.2891 19.2715 17.5048C19.074 17.6054 18.8132 17.6745 18.3593 17.7116C17.8967 17.7494 17.3025 17.75 16.45 17.75H8.25V15.75C8.25 15.4674 8.09111 15.2087 7.83901 15.081C7.5869 14.9532 7.28439 14.9781 7.05647 15.1452L3.30647 17.8952C3.11382 18.0365 3 18.2611 3 18.5C3 18.7389 3.11382 18.9635 3.30647 19.1048L7.05647 21.8548C7.28439 22.0219 7.5869 22.0468 7.83901 21.919C8.09111 21.7913 8.25 21.5326 8.25 21.25V19.25H16.4821C17.295 19.25 17.9506 19.25 18.4815 19.2066C19.0281 19.162 19.5082 19.0676 19.9525 18.8413C20.6581 18.4818 21.2317 17.9081 21.5913 17.2025C22.0011 16.398 22.0008 15.6248 22.0001 14.1431L22 12.75Z" fill="black"/>
</svg>

<svg xmlns="http://www.w3.org/2000/svg" width="24" height="24"><path d="M16.944 2.145a.75.75 0 00-1.194.605v2H7.518c-.813 0-1.469 0-2 .043-.546.045-1.026.14-1.47.366a3.75 3.75 0 00-1.64 1.639C1.999 7.602 2 8.375 2 9.857v1.393a.75.75 0 001.5 0v-1.2c0-1.751.019-2.127.245-2.571a2.25 2.25 0 01.984-.984c.197-.1.458-.17.912-.207.462-.037 1.057-.038 1.909-.038h8.2v2a.75.75 0 001.194.605l3.75-2.75a.75.75 0 000-1.21l-3.75-2.75zM22 12.75a.75.75 0 00-1.5 0v1.2c0 1.751-.019 2.127-.245 2.572-.216.423-.56.767-.983.983-.198.1-.459.17-.913.207-.462.037-1.057.038-1.909.038h-8.2v-2a.75.75 0 00-1.194-.605l-3.75 2.75a.75.75 0 000 1.21l3.75 2.75a.75.75 0 001.194-.605v-2h8.232c.813 0 1.469 0 2-.043.546-.045 1.026-.14 1.47-.366a3.75 3.75 0 001.64-1.639c.41-.804.409-1.577.408-3.059V12.75z"/></svg>
